web/packages/design/src/ResourceIcon/assets/securecodewarrior-dark.svg

<svg width="72" height="72" viewBox="0 0 72 72" fill="none" xmlns="http://www.w3.org/2000/svg">
<g clip-path="url(#clip0_16966_11949)">
<path d="M9 36.172V14.8022C9 14.8022 12.4959 10.1448 17.9241 6.56609C26.8594 0.676928 35.9411 0.00195312 36 0.00195312C36.0788 0.00195312 45.1618 0.70505 54.0788 6.5914C59.4507 10.1378 62.9719 14.8036 62.9719 14.8036V24.0774H54.7792V17.886C47.7126 10.2827 38.0559 8.58398 36 8.29571C33.9721 8.58398 24.2311 10.3403 17.1928 17.886V25.2305L13.673 27.9375H63.0001V41.5889C62.9888 48.4622 59.2243 54.7606 53.955 60.0002C45.8537 68.0548 36.0126 72.002 35.9719 72.002C29.9475 69.2291 23.2242 65.2634 17.9972 60.3404C12.742 55.3877 9 49.4704 9 42.8248V40.0308H19.1363L17.1942 42.8248C17.1942 48.0714 21.967 52.9678 27.0253 56.9303C29.8153 59.1155 35.9859 63.2724 35.9733 63.2724C36.0408 63.2724 43.4939 58.1748 45.0394 56.9359C49.4874 53.3643 54.8087 47.8057 54.8087 41.586V39.3978L58.7221 36.172H9Z" fill="white"/>
</g>
<defs>
<clipPath id="clip0_16966_11949">
<rect width="72" height="72" fill="white" transform="translate(0 0.00195312)"/>
</clipPath>
</defs>
</svg>

<svg xmlns="http://www.w3.org/2000/svg" width="72" height="72" fill="none" viewBox="0 0 72 72"><g clip-path="url(#clip0_16966_11949)"><path fill="#fff" d="M9 36.172v-21.37s3.496-4.657 8.924-8.236C26.86.676 35.941.002 36 .002c.079 0 9.162.703 18.079 6.59 5.372 3.546 8.893 8.212 8.893 8.212v9.273h-8.193v-6.191C47.713 10.283 38.056 8.584 36 8.296c-2.028.288-11.769 2.044-18.807 9.59v7.345l-3.52 2.706H63V41.59c-.01 6.872-3.776 13.17-9.045 18.41-8.101 8.055-17.942 12.002-17.983 12.002-6.024-2.773-12.748-6.739-17.975-11.662C12.742 55.388 9 49.47 9 42.825V40.03h10.136l-1.942 2.794c0 5.246 4.773 10.143 9.831 14.105 2.79 2.185 8.96 6.342 8.948 6.342.068 0 7.52-5.097 9.066-6.336 4.448-3.572 9.77-9.13 9.77-15.35v-2.188l3.913-3.226z"/></g><defs><clipPath id="clip0_16966_11949"><path fill="#fff" d="M0 .002h72v72H0z"/></clipPath></defs></svg>
